assets/img/page-image.svg

<svg xmlns="http://www.w3.org/2000/svg" width="724" height="723" fill="none" xmlns:v="https://vecta.io/nano"><path fill="#fff" d="M200 362h329v208H200z"/><path fill-rule="evenodd" d="M329.183 217.477c0-3.673-.18-7.32-.18-10.762 0-13.557 0-19.12-10.943-23.465-12.313-4.916-25.74-3.96-38.648-3.027-9.908.698-19.505 1.37-28.068-.62-8.045-9.625-6.415-19.352-4.734-29.364 1.57-6.65 1.773-13.552.595-20.284a39.55 39.55 0 0 0-16.712-6.463c-5.99-.848-12.098-.3-17.85 1.574-4.785 7.114-4.527 17.54-4.294 28.018.207 9.47.44 19.016-3.052 26.234a289.06 289.06 0 0 1-57.921 1.63c-3.285 0-6.804 0-10.348.26-16.22.57-34.07 1.216-40.174-9.34-8.977-15.807-4.14-45.042.776-75.027 8.356-51.38 17.306-105.012-43.382-95.362-14.99 2.375-29.19 8.33-41.4 17.36-22.816 18.73-9.08 134.713-5.33 161.438l.44 3.208c4.656 34.02 6.002 43.594 72.148 43.594 31.042 0 62.085-3.027 92.87-6.028l16.427-1.578c29.88-2.976 77.452-6.65 87.075-6.65 1.656 0 3.596-.156 5.743-.31 10.347-.802 24.756-1.94 24.756 12.936v12.21c.365 5.13-.001 10.288-1.086 15.316l-5.562.285c-38.984 1.914-104.02 5.174-128.8 22.792a74.66 74.66 0 0 0-20.126 22.172c-5.17 8.73-8.54 18.406-9.908 28.46-7.14 45.844-9.442 90.912-9.856 99.346v.207c-2.923 56.917-3.053 211.215 20.954 251.367 21.316 35.65 73.467 38.808 121.403 41.395l17.927 1.112a1022.84 1022.84 0 0 0 226.871-9.365c15.135-1.607 29.35-8.048 40.536-18.37 11.238-10.35 18.94-23.97 22.015-38.936 6.47-37.784 9.93-76.02 10.347-114.352 4.683-49.674 0-172.977-10.528-219.364-12.52-53.14-56.653-57.435-101.226-61.782l-9.002-.905c-4.5-.44-10.968-.828-17.953-1.268-13.814-.828-29.646-1.81-36.217-3.596v-28.458c0-14.023 5.38-13.66 40.77-11.28l6.467.413c13.762 1.035 31.276 2.82 50.548 4.813 60.068 6.157 137.26 14.074 172.624 5.898 21.6-5.02 23.877-11.124 27.343-33.788 4-26.31 17.358-144.88 0-166.586-10.95-10.84-24.883-18.163-40.02-21.033-66.975-13.84-58.05 41.68-49.565 94.534 4.89 30.45 9.65 60.02-.362 75.027-6.778 9.986-24.912 9.236-40.77 8.59l-10.735-.3H553.75c-26.257.155-35.776.207-38.803-4.217-1.76-2.587-1.45-6.468-.983-12.65a142.05 142.05 0 0 0 0-27.968c-2.587-24.552-37.5-8.408-38.803-6.105-.862 6.735-.644 13.565.646 20.23 1.45 10.633 2.872 21.06-3.828 28.46-6.312 3.286-17.695 2.587-29.982 2.07-13.71-.7-28.456-1.475-38.804 2.95s-9.985 10.84-9.882 23.465v40.1c0 7.037-4.216 6.78-15.52 6.132-4-.233-8.9-.518-14.823-.57H328.07l.93-12.47c.427-7.305.487-14.627.18-21.94zM293.82 525.555c11.297.2 22.398-2.967 31.89-9.098a56.92 56.92 0 0 0 21.405-25.33c4.462-10.38 5.734-21.855 3.653-32.962a56.91 56.91 0 0 0-15.337-29.403c-7.918-8.062-18.055-13.584-29.122-15.863s-22.56-1.212-33.02 3.064a56.92 56.92 0 0 0-25.706 20.951c-6.3 9.38-9.664 20.424-9.666 31.724a56.41 56.41 0 0 0 4.097 21.629 56.42 56.42 0 0 0 30.256 30.805c6.82 2.895 14.142 4.42 21.55 4.483zm221.257-57.383c-.224 13.412-4.405 26.458-12.02 37.5s-18.32 19.6-30.775 24.568a68.06 68.06 0 0 1-73.781-15.477c-9.405-9.563-15.775-21.692-18.31-34.864a68.08 68.08 0 0 1 4.061-39.171c5.183-12.372 13.906-22.936 25.072-30.366a68.06 68.06 0 0 1 37.692-11.397c9.013.074 17.923 1.923 26.22 5.442s15.822 8.636 22.142 15.063a68.64 68.64 0 0 1 14.693 22.391c3.38 8.356 5.08 17.296 5.005 26.3z" fill="url(#A)"/><defs><linearGradient id="A" x1="361.545" y1="722.695" x2="361.545" y2=".002" gradientUnits="userSpaceOnUse"><stop stop-color="#9d3bff"/><stop offset="1" stop-color="#00c4d1"/></linearGradient></defs></svg>

<svg width="724" height="723" viewBox="0 0 724 723" fill="none" xmlns="http://www.w3.org/2000/svg">
<rect x="200" y="362" width="329" height="208" fill="white"/>
<path fill-rule="evenodd" clip-rule="evenodd" d="M329.183 217.477C329.183 213.804 329.002 210.156 329.002 206.715C329.002 193.158 329.002 187.596 318.059 183.25C305.746 178.334 292.32 179.291 279.411 180.223C269.503 180.921 259.906 181.594 251.343 179.602C243.298 169.977 244.928 160.25 246.609 150.238C248.18 143.587 248.382 136.686 247.204 129.954C242.201 126.55 236.484 124.338 230.492 123.491C224.501 122.643 218.394 123.181 212.643 125.065C207.858 132.179 208.116 142.605 208.349 153.083C208.556 162.552 208.789 172.099 205.297 179.317C186.093 181.799 166.689 182.345 147.376 180.947C144.091 180.947 140.572 180.947 137.028 181.206C120.809 181.775 102.959 182.422 96.854 171.866C87.8774 156.059 92.7149 126.824 97.63 96.8389C105.986 45.4581 114.936 -8.17342 54.2478 1.47664C39.2564 3.85202 25.0585 9.80683 12.8575 18.8364C-9.95897 37.5673 3.77744 153.549 7.52844 180.274C7.68366 181.361 7.81301 182.448 7.96822 183.482C12.6246 217.503 13.9698 227.076 80.1167 227.076C111.159 227.076 142.202 224.049 172.986 221.048L189.413 219.47C219.292 216.494 266.865 212.821 276.488 212.821C278.144 212.821 280.084 212.665 282.231 212.51C292.578 211.708 306.987 210.57 306.987 225.446C306.987 230.879 306.987 234.708 306.987 237.657C307.352 242.788 306.986 247.945 305.901 252.973L300.339 253.258C261.355 255.172 196.32 258.432 171.538 276.05C163.401 282.006 156.554 289.548 151.412 298.222C146.242 306.952 142.873 316.628 141.504 326.681C134.364 372.525 132.062 417.593 131.648 426.027V426.234C128.725 483.151 128.595 637.449 152.602 677.601C173.918 713.252 226.069 716.409 274.005 718.996C280.075 719.323 286.051 719.694 291.932 720.108C367.669 725.416 443.761 722.275 518.803 710.743C533.938 709.136 548.152 702.695 559.339 692.374C570.577 682.024 578.278 668.403 581.354 653.438C587.824 615.654 591.284 577.417 591.701 539.086C596.384 489.412 591.701 366.109 581.173 319.722C568.652 266.582 524.52 262.287 479.947 257.94L470.945 257.035C466.444 256.595 459.977 256.207 452.992 255.767C439.178 254.939 423.346 253.956 416.775 252.171V223.713C416.775 209.69 422.156 210.052 457.545 212.433L464.012 212.846C477.774 213.881 495.288 215.666 514.56 217.659C574.628 223.816 651.821 231.733 687.184 223.557C708.784 218.538 711.061 212.433 714.527 189.769C718.537 163.458 731.885 44.889 714.527 23.1828C703.578 12.3435 689.644 5.01966 674.508 2.1493C607.533 -11.6919 616.458 43.8282 624.943 96.6836C629.832 127.134 634.592 156.705 624.581 171.711C617.803 181.697 599.669 180.947 583.811 180.3C580.034 180.145 576.413 179.99 573.076 179.99C565.806 179.99 559.391 179.99 553.751 179.99C527.494 180.145 517.975 180.197 514.948 175.773C513.189 173.186 513.499 169.305 513.965 163.122C514.885 153.822 514.885 144.454 513.965 135.154C511.378 110.602 476.455 126.746 475.162 129.049C474.3 135.784 474.518 142.614 475.808 149.28C477.257 159.913 478.68 170.34 471.98 177.739C465.668 181.025 454.285 180.326 441.998 179.809C428.287 179.11 413.542 178.334 403.194 182.758C392.847 187.182 393.209 193.598 393.312 206.223V246.324C393.312 253.361 389.096 253.103 377.791 252.456C373.781 252.223 368.892 251.938 362.968 251.887H328.071L329.002 239.416C329.429 232.111 329.489 224.789 329.183 217.477ZM293.82 525.555C305.117 525.755 316.218 522.588 325.709 516.457C335.2 510.326 342.651 501.508 347.114 491.127C351.576 480.746 352.848 469.272 350.767 458.165C348.687 447.059 343.348 436.823 335.43 428.762C327.512 420.7 317.375 415.178 306.308 412.899C295.242 410.62 283.747 411.687 273.289 415.963C262.831 420.24 253.883 427.533 247.583 436.914C241.284 446.294 237.919 457.338 237.917 468.638C237.849 476.046 239.241 483.396 242.014 490.267C244.787 497.137 248.886 503.394 254.077 508.68C259.269 513.965 265.451 518.176 272.27 521.072C279.089 523.967 286.412 525.491 293.82 525.555ZM515.077 468.172C514.853 481.584 510.672 494.63 503.058 505.673C495.444 516.716 484.738 525.263 472.283 530.241C459.828 535.219 446.181 536.405 433.054 533.652C419.927 530.898 407.907 524.327 398.502 514.764C389.097 505.201 382.727 493.072 380.191 479.9C377.656 466.728 379.069 453.101 384.252 440.729C389.435 428.357 398.158 417.793 409.324 410.363C420.491 402.933 433.604 398.968 447.016 398.966C456.029 399.04 464.939 400.889 473.237 404.408C481.535 407.926 489.059 413.044 495.379 419.471C501.699 425.897 506.692 433.506 510.072 441.862C513.451 450.218 515.152 459.158 515.077 468.172Z" fill="url(#paint0_linear)"/>
<defs>
<linearGradient id="paint0_linear" x1="361.545" y1="722.695" x2="361.545" y2="0.00198149" gradientUnits="userSpaceOnUse">
<stop stop-color="#9D3BFF"/>
<stop offset="1" stop-color="#00C4D1"/>
</linearGradient>
</defs>
</svg>
